X:1
T:Title
%%score ( 1 2 ) 3
L:1/8
Q:1/4=105
M:6/8
K:C
V:1 treble nm="Grand Piano, Soprano"
V:2 treble 
V:3 bass nm="Choir Pad, Bass"
V:1
 C2 D E2 F | G2 A G3 | [CE]3 [B,D][A,C][B,D] | [CE]3 .[CG]3 | [CF]2 [EG] [FA]2 [GB] | %5
w: By~Fred~W.~Peace * * *|||||
 [Gc]2 [Gd] [Gc]3 | [GB]3 [^Fc][FB][FA] | [Gd]3 .[Fd]3 | [Ee]2 [Gc] [Fd]2 [Ee] | [Fd]2 [FA] [FA]3 | %10
w: |||||
 [FB]2 [Fd] [Ec]2 [FA] | [EG]2 [CE] [EG]3 | [FA]2 [FA] [FA]3 | [D^Fc]2 [DFc] [DFc]3 | %14
w: ||||
 [EGe]3 [Fd][FG][Fd] | [Ec]6 | e3 c3 | [Fc][FB][FA] [DFB]3 | d3 B3 | [FA][EG][_E^F] [=EG]3 | %20
w: ||||||
 [FA]2 [FA] [Fd]2 [FA] | [EG]2 [DG] [Gc]2 [Ge] | [Ge][Fd][Ec] [Fd]2 [FG] | [Ec]6- | [Ec]3 z3 |] %25
w: |||||
V:2
 x6 | x6 | x6 | x6 | x6 | x6 | x6 | x6 | x6 | x6 | x6 | x6 | x6 | x6 | x6 | x6 | %16
 [EG]2 [EG] [EG]2 [EG] | x6 | F2 F F2 F | x6 | x6 | x6 | x6 | x6 | x6 |] %25
V:3
 C,2 D, E,2 F, | G,2 A, G,3 | [C,G,]3 [C,F,][C,E,][C,F,] | [C,G,]3 .[E,G,]3 | %4
 [A,C]2 [G,C] [F,C]2 [F,D] | [E,C]2 [D,B,] [E,C]3 | [D,D]3 [D,D][D,D][CD] | [B,D]3 .[G,B,]3 | %8
 [C,C]2 [E,C] [D,B,]2 [C,C] | [F,A,]2 [D,D] [D,D]3 | [G,D]2 [^G,B,] [A,C]2 [F,C] | %11
 [C,C]2 [C,G,] [C,C]3 | [F,C]2 [F,C] [F,C]3 | [A,C]2 [A,C] [A,C]3 | [G,C]3 [G,B,][G,B,][G,B,] | %15
 [C,G,C]6 | [C,G,]3 [G,,G,]3 | [D,G,]3 [G,,G,]3 | [B,,G,]3 [G,,G,]3 | [C,G,]3 [C,C]3 | %20
 [F,C]2 [F,C] [F,A,]2 [F,C] | [G,C]2 [F,B,] [E,C]2 [C,C] | [G,B,][G,B,][G,C] [G,B,]2 [G,B,] | %23
 [C,C]6- | [C,C]3 z3 |] %25

